assets/img/icons/duotone-icons/Weather/Storm.svg

<?xml version="1.0" encoding="UTF-8"?>
<svg width="24px" height="24px" viewBox="0 0 24 24" version="1.1" xmlns="http://www.w3.org/2000/svg" xmlns:xlink="http://www.w3.org/1999/xlink">
    <!-- Generator: Sketch 52.2 (67145) - http://www.bohemiancoding.com/sketch -->
    <title>Stockholm-icons / Weather / Storm</title>
    <desc>Created with Sketch.</desc>
    <g id="Stockholm-icons-/-Weather-/-Storm" stroke="none" stroke-width="1" fill="none" fill-rule="evenodd">
        <polygon id="Shape" points="0 0 24 0 24 24 0 24"></polygon>
        <rect id="Rectangle-74" fill="#335EEA" x="8" y="2" width="14" height="2" rx="1"></rect>
        <path d="M6,6 L18,6 C18.5522847,6 19,6.44771525 19,7 C19,7.55228475 18.5522847,8 18,8 L6,8 C5.44771525,8 5,7.55228475 5,7 C5,6.44771525 5.44771525,6 6,6 Z M8,10 L15,10 C15.5522847,10 16,10.4477153 16,11 C16,11.5522847 15.5522847,12 15,12 L8,12 C7.44771525,12 7,11.5522847 7,11 C7,10.4477153 7.44771525,10 8,10 Z M11,14 L17,14 C17.5522847,14 18,14.4477153 18,15 C18,15.5522847 17.5522847,16 17,16 L11,16 C10.4477153,16 10,15.5522847 10,15 C10,14.4477153 10.4477153,14 11,14 Z M12,18 L15,18 C15.5522847,18 16,18.4477153 16,19 C16,19.5522847 15.5522847,20 15,20 L12,20 C11.4477153,20 11,19.5522847 11,19 C11,18.4477153 11.4477153,18 12,18 Z M11,21 L12,21 C12.5522847,21 13,21.4477153 13,22 C13,22.5522847 12.5522847,23 12,23 L11,23 C10.4477153,23 10,22.5522847 10,22 C10,21.4477153 10.4477153,21 11,21 Z" id="Combined-Shape" fill="#335EEA" opacity="0.3"></path>
    </g>
</svg>

<svg width="24" height="24" viewBox="0 0 24 24" xmlns="http://www.w3.org/2000/svg"><g fill="none" fill-rule="evenodd"><path d="M0 0h24v24H0z"/><rect fill="#335EEA" x="8" y="2" width="14" height="2" rx="1"/><path d="M6 6h12a1 1 0 010 2H6a1 1 0 110-2zm2 4h7a1 1 0 010 2H8a1 1 0 010-2zm3 4h6a1 1 0 010 2h-6a1 1 0 010-2zm1 4h3a1 1 0 010 2h-3a1 1 0 010-2zm-1 3h1a1 1 0 010 2h-1a1 1 0 010-2z" fill="#335EEA" opacity=".3"/></g></svg>
